X:73
T:Flowers of Maiden Lane - Fone
%%VWML:SBG-1-2-793-0
F:http://www.vwml.org/record/SBG/1/2/793
Z:Original Sibelius transcriptions by M. & S. Graebe
M:6/8
I:linebreak $
K:A
V:1 treble nm="P1"
V:1
 A | A>B ce cf | e4 z B | Bc eB ec | A4 z c | c>B AG AB | c4 z A |$ Bd c>A cB | A6 | c>d eg ff | %10
 e6 | B>c de ff | [ce]6 |$ B>d ec BA | F4 z G | A"^........ rall. ........"d c>A GB | A4 AG | %17
 F>d cA GB | A4 z x | %19

